assets/icon/edit_icon.svg

<svg width="16" height="16" viewBox="0 0 16 16" fill="none" xmlns="http://www.w3.org/2000/svg">
<path d="M15.4042 3.28224L12.6642 0.542241C12.3066 0.206336 11.838 0.0135995 11.3475 0.000692758C10.8571 -0.012214 10.379 0.15561 10.0042 0.472241L1.0042 9.47224C0.680969 9.79821 0.479707 10.2254 0.434203 10.6822L0.00420295 14.8522C-0.00926809 14.9987 0.00973728 15.1463 0.0598642 15.2846C0.109991 15.4229 0.190005 15.5484 0.294203 15.6522C0.387643 15.7449 0.498459 15.8182 0.620297 15.868C0.742134 15.9178 0.872596 15.943 1.0042 15.9422H1.0942L5.2642 15.5622C5.721 15.5167 6.14824 15.3155 6.4742 14.9922L15.4742 5.99224C15.8235 5.62321 16.0123 5.13075 15.9992 4.62278C15.9861 4.1148 15.7721 3.63275 15.4042 3.28224ZM5.0842 13.5622L2.0842 13.8422L2.3542 10.8422L8.0042 5.26224L10.7042 7.96224L5.0842 13.5622ZM12.0042 6.62224L9.3242 3.94224L11.2742 1.94224L14.0042 4.67224L12.0042 6.62224Z" fill="#FEFEFE"/>
</svg>

<?xml version="1.0" encoding="utf-8"?>
<!-- Generator: Adobe Illustrator 25.2.1, SVG Export Plug-In . SVG Version: 6.00 Build 0)  -->
<svg version="1.1" id="Слой_1" xmlns="http://www.w3.org/2000/svg" xmlns:xlink="http://www.w3.org/1999/xlink" x="0px" y="0px"
	 viewBox="0 0 16 16" style="enable-background:new 0 0 16 16;" xml:space="preserve">
<style type="text/css">
	.st0{fill:#FEFEFE;}
</style>
<path class="st0" d="M15.4,3.3l-2.7-2.7C12.3,0.2,11.8,0,11.3,0c-0.5,0-1,0.2-1.3,0.5l-9,9c-0.3,0.3-0.5,0.8-0.6,1.2L0,14.9
	c0,0.1,0,0.3,0.1,0.4c0.1,0.1,0.1,0.3,0.2,0.4c0.1,0.1,0.2,0.2,0.3,0.2c0.1,0,0.3,0.1,0.4,0.1h0.1l4.2-0.4c0.5,0,0.9-0.2,1.2-0.6
	l9-9C15.8,5.6,16,5.1,16,4.6C16,4.1,15.8,3.6,15.4,3.3z M5.1,13.6l-3,0.3l0.3-3L8,5.3L10.7,8L5.1,13.6z M12,6.6L9.3,3.9l2-2L14,4.7
	L12,6.6z"/>
</svg>
